X:1
T:O lux beata 2
T:André Vierendeels
T:(25/02/18)
T:Early melody
T:O lux beata 2
T:ad voces aequales
T:©
T:©
C:André Vierendeels
Z:©
%%score [ 1 2 [ 3 4 ] ]
L:1/8
Q:1/4=120
M:2/2
K:G
V:1 treble-8 nm="Tenor 1" snm="T 1"
V:2 treble-8 nm="Tenor 2" snm="T 2"
V:3 bass nm="Bass 1" snm="B 1"
V:4 bass nm="Bass 2" snm="B 2"
V:1
 z4 B4 | G4 E4 | c4 A4 | F6 F2 | !fermata!E4 G4 | A4 B4 | c4 B4 | A6 A2 | !fermata!G4 B4 | G4 A4 | %10
w: O|lux be-|a- ta|Tri- ni-|tas et|prin- ci-|pa- lis|U- ni-|tas, jam|sol re-|
 B4 d4 | c4 B4 | !fermata!A4 B4 | G4 E4 | c4 A4 | F6 F2 | !fermata!E8 |] %17
w: ce- dit|i- gue-|us, in|fun- de|lu- men|cor- di-|bus.|
V:2
 z4 E4 | D4 C4 | A2 E2 F4 | ^D6 D2 | !fermata!E4 C4 | E4 G4 | A2 F2 G4 | F6 F2 | !fermata!G4 G4 | %9
w: O|lux be-|a- * ta|Tri- ni-|tas et|prin- ci-|pa- * lis|U- ni-|tas, jam|
 G4 F4 | G4 B4 | G4 G4 | !fermata!E4 E4 | D4 C4 | A2 E2 F4 | ^D6 D2 | !fermata!E8 |] %17
w: sol re-|ce- dit|i- gue-|us, in|fun- de|lu- * men|cor- di-|bus.|
V:3
 z4 E,4 | G,4 C,4 | E,4 D,4 | F,6 F,2 | !fermata!E,4 E,4 | C,4 E,4 | E,4 D,4 | D,6 F,2 | %8
w: O|lux be-|a- ta|Tri- ni-|tas et|prin- ci-|pa- lis|U- ni-|
 !fermata!D,4 D,4 | E,4 A,4 | E,4 D,4 | E,4 E,4 | !fermata!C,4 E,4 | G,4 C,4 | E,4 D,4 | F,6 F,2 | %16
w: tas, jam|sol re-|ce- dit|i- gue-|us, in|fun- de|lu- men|cor- di-|
 !fermata!G,8 |] %17
w: bus.|
V:4
 z4 E,4 | B,,4 C,4 | A,,4 D,4 | B,,6 B,,2 | !fermata!G,,4 C,4 | A,,4 E,4 | A,,4 G,,4 | D,6 D,2 | %8
w: O|lux be-|a- ta|Tri- ni-|tas et|prin- ci-|pa- lis|U- ni-|
 !fermata!G,,4 B,,4 | E,4 D,4 | E,4 G,,4 | C,4 E,4 | !fermata!A,,4 E,4 | B,,4 C,4 | A,,4 D,4 | %15
w: tas, jam|sol re-|ce- dit|i- gue-|us, in|fun- de|lu- men|
 B,,6 B,,2 | !fermata!E,8 |] %17
w: cor- di-|bus.|

